X:1
T:RVW2/1/87 The Red Running Rue (3 of 3)-0
T:RVW2/1/87 The Red Running Rue (3 of 3)-0
T:Sung by Mr. Billy Waggs at the "Red Lion," Orwell, June 13th 1908
T:Transcribed by Simon Furey and Lewis Jones
C:Transcribed by Simon Furey and Lewis Jones
L:1/8
Q:1/4=70
M:4/4
K:F
V:1 treble 
V:1
"^(Editorial suggestion)" FG | A3 G GFDE |"^(a)" F6 AB |"^(b)" c3 A FG AB | c6 c2 | d2 cB AG F2 | %6
 G2 AF D2 FG | A2 AG F2 DE | F6 || FG | A3 G GFDE |"^(a) var." F6 c2 |"^(b) var." d2 cA FG AB | %13
 c6 c2 | d2 cB AG F2 | G2 AF D2 FG | A2 AG F2 DE | F6 |] %18

